assets/media/flags/default.svg

<svg clip-rule="evenodd" fill-rule="evenodd" stroke-linejoin="round" stroke-miterlimit="1.41421" viewBox="0 0 300 300" xmlns="http://www.w3.org/2000/svg"><g fill-rule="nonzero" transform="matrix(1.82865 0 0 1.82865 -124.297 -124.297)"><path d="m150 68.964c-43.422 0-78.75 35.325-78.75 78.75 0 23.754 5.757 38.436 20.523 52.275.756 2.043-.546 10.536-1.251 15.138-1.419 9.264-1.755 12.426-.279 14.406.576.777 1.41 1.275 2.346 1.404.474.066.966.099 1.476.099 5.157 0 11.751-3.432 17.571-6.453 3.078-1.602 7.269-3.78 8.751-3.879 9.408 3.822 19.371 5.76 29.613 5.76 43.425 0 78.75-35.325 78.75-78.747 0-43.425-35.325-78.753-78.75-78.753zm0 151.497c-9.534 0-18.804-1.815-27.549-5.4-2.826-1.143-6.705.621-13.581 4.194-4.434 2.304-9.84 5.115-13.572 5.676.126-2.196.702-5.958 1.152-8.898 1.854-12.096 2.376-17.673-.405-20.265-12.918-12.045-18.294-24.894-18.75-45.168 0-.054.03-.096.03-.15 0-.06-.03-.111-.036-.171-.015-.852-.039-1.692-.039-2.568 0-40.116 32.634-72.75 72.75-72.75 40.113 0 72.75 32.634 72.75 72.75s-32.637 72.75-72.75 72.75z"/><path d="m215.07 147.453h-18.612c-.291-16.572-2.892-29.631-4.032-34.599 3.318-.21 6.612-.435 9.804-.657 1.653-.117 2.898-1.554 2.781-3.204s-1.566-2.883-3.201-2.781c-3.489.246-7.092.486-10.734.714l-3.417-12.39c-.444-1.599-2.109-2.517-3.693-2.082-1.596.444-2.529 2.1-2.082 3.693l3.108 11.148c-12.144.699-22.875 1.083-31.989 1.146v-25.188c0-1.659-1.344-3-3-3s-3 1.341-3 3v25.17c-9.192-.075-19.158-.384-29.259-.903 1.245-5.334 3.501-13.398 3.528-13.497.447-1.596-.483-3.252-2.079-3.699-1.599-.453-3.252.483-3.699 2.079-.126.444-2.61 9.327-3.828 14.796-4.677-.258-9.261-.537-13.626-.837-1.644-.111-3.084 1.131-3.201 2.784-.114 1.656 1.131 3.087 2.784 3.201 4.122.285 8.442.549 12.84.795-1.209 5.013-3.663 17.202-3.927 34.314h-21.636c-1.656 0-3 1.344-3 3 0 1.659 1.344 3 3 3h21.633c.264 17.154 2.715 29.313 3.927 34.314-3.261.189-6.495.39-9.63.612-1.653.114-2.898 1.551-2.781 3.201.111 1.581 1.428 2.79 2.991 2.79.069 0 .141-.003.213-.009 3.429-.24 6.969-.459 10.554-.663l2.265 10.899c.306 1.407 1.548 2.364 2.928 2.364.21 0 .426-.021.639-.066 1.62-.351 2.646-1.95 2.295-3.567l-2.16-9.948c10.635-.552 20.436-.855 29.229-.906v21.069c0 1.659 1.344 3 3 3s3-1.341 3-3v-21.069c9.645.078 20.451.435 31.653 1.038l-2.514 6.78c-.576 1.554.216 3.279 1.77 3.855.342.129.696.186 1.044.186 1.218 0 2.364-.747 2.814-1.956l3.153-8.499 7.821.489c1.626.081 3.075-1.152 3.186-2.805.105-1.653-1.152-3.078-2.805-3.186l-6.51-.408c1.281-4.59 3.627-15.552 3.858-34.518h18.603c1.659 0 3-1.341 3-3-.006-1.653-1.347-3-3.006-3zm-62.07-33.012c9.48-.063 20.67-.468 33.348-1.212.87 3.633 3.792 17.079 4.107 34.224h-37.455zm-36.435-.969c10.491.552 20.874.876 30.435.951v33.03h-34.464c.294-17.865 3.093-30.303 4.029-33.981zm0 73.965c-.936-3.666-3.738-16.062-4.029-33.981h34.464v33.021c-9.144.048-19.35.369-30.435.96zm69.891.168c-11.835-.663-23.283-1.05-33.456-1.131v-33.021h37.464c-.264 20.688-3.138 31.392-4.008 34.152z"/></g></svg>

<?xml version="1.0" encoding="UTF-8" standalone="no"?>
<!DOCTYPE svg PUBLIC "-//W3C//DTD SVG 1.1//EN" "http://www.w3.org/Graphics/SVG/1.1/DTD/svg11.dtd">
<svg width="100%" height="100%" viewBox="0 0 300 300" version="1.1" xmlns="http://www.w3.org/2000/svg" xmlns:xlink="http://www.w3.org/1999/xlink" xml:space="preserve" xmlns:serif="http://www.serif.com/" style="fill-rule:evenodd;clip-rule:evenodd;stroke-linejoin:round;stroke-miterlimit:1.41421;">
    <g transform="matrix(1.82865,0,0,1.82865,-124.297,-124.297)">
        <path d="M150,68.964C106.578,68.964 71.25,104.289 71.25,147.714C71.25,171.468 77.007,186.15 91.773,199.989C92.529,202.032 91.227,210.525 90.522,215.127C89.103,224.391 88.767,227.553 90.243,229.533C90.819,230.31 91.653,230.808 92.589,230.937C93.063,231.003 93.555,231.036 94.065,231.036C99.222,231.036 105.816,227.604 111.636,224.583C114.714,222.981 118.905,220.803 120.387,220.704C129.795,224.526 139.758,226.464 150,226.464C193.425,226.464 228.75,191.139 228.75,147.717C228.75,104.292 193.425,68.964 150,68.964ZM150,220.461C140.466,220.461 131.196,218.646 122.451,215.061C119.625,213.918 115.746,215.682 108.87,219.255C104.436,221.559 99.03,224.37 95.298,224.931C95.424,222.735 96,218.973 96.45,216.033C98.304,203.937 98.826,198.36 96.045,195.768C83.127,183.723 77.751,170.874 77.295,150.6C77.295,150.546 77.325,150.504 77.325,150.45C77.325,150.39 77.295,150.339 77.289,150.279C77.274,149.427 77.25,148.587 77.25,147.711C77.25,107.595 109.884,74.961 150,74.961C190.113,74.961 222.75,107.595 222.75,147.711C222.75,187.827 190.113,220.461 150,220.461Z" style="fill-rule:nonzero;"/>
        <path d="M215.07,147.453L196.458,147.453C196.167,130.881 193.566,117.822 192.426,112.854C195.744,112.644 199.038,112.419 202.23,112.197C203.883,112.08 205.128,110.643 205.011,108.993C204.894,107.343 203.445,106.11 201.81,106.212C198.321,106.458 194.718,106.698 191.076,106.926L187.659,94.536C187.215,92.937 185.55,92.019 183.966,92.454C182.37,92.898 181.437,94.554 181.884,96.147L184.992,107.295C172.848,107.994 162.117,108.378 153.003,108.441L153.003,83.253C153.003,81.594 151.659,80.253 150.003,80.253C148.347,80.253 147.003,81.594 147.003,83.253L147.003,108.423C137.811,108.348 127.845,108.039 117.744,107.52C118.989,102.186 121.245,94.122 121.272,94.023C121.719,92.427 120.789,90.771 119.193,90.324C117.594,89.871 115.941,90.807 115.494,92.403C115.368,92.847 112.884,101.73 111.666,107.199C106.989,106.941 102.405,106.662 98.04,106.362C96.396,106.251 94.956,107.493 94.839,109.146C94.725,110.802 95.97,112.233 97.623,112.347C101.745,112.632 106.065,112.896 110.463,113.142C109.254,118.155 106.8,130.344 106.536,147.456L84.9,147.456C83.244,147.456 81.9,148.8 81.9,150.456C81.9,152.115 83.244,153.456 84.9,153.456L106.533,153.456C106.797,170.61 109.248,182.769 110.46,187.77C107.199,187.959 103.965,188.16 100.83,188.382C99.177,188.496 97.932,189.933 98.049,191.583C98.16,193.164 99.477,194.373 101.04,194.373C101.109,194.373 101.181,194.37 101.253,194.364C104.682,194.124 108.222,193.905 111.807,193.701L114.072,204.6C114.378,206.007 115.62,206.964 117,206.964C117.21,206.964 117.426,206.943 117.639,206.898C119.259,206.547 120.285,204.948 119.934,203.331L117.774,193.383C128.409,192.831 138.21,192.528 147.003,192.477L147.003,213.546C147.003,215.205 148.347,216.546 150.003,216.546C151.659,216.546 153.003,215.205 153.003,213.546L153.003,192.477C162.648,192.555 173.454,192.912 184.656,193.515L182.142,200.295C181.566,201.849 182.358,203.574 183.912,204.15C184.254,204.279 184.608,204.336 184.956,204.336C186.174,204.336 187.32,203.589 187.77,202.38L190.923,193.881L198.744,194.37C200.37,194.451 201.819,193.218 201.93,191.565C202.035,189.912 200.778,188.487 199.125,188.379L192.615,187.971C193.896,183.381 196.242,172.419 196.473,153.453L215.076,153.453C216.735,153.453 218.076,152.112 218.076,150.453C218.07,148.8 216.729,147.453 215.07,147.453ZM153,114.441C162.48,114.378 173.67,113.973 186.348,113.229C187.218,116.862 190.14,130.308 190.455,147.453L153,147.453L153,114.441ZM116.565,113.472C127.056,114.024 137.439,114.348 147,114.423L147,147.453L112.536,147.453C112.83,129.588 115.629,117.15 116.565,113.472ZM116.565,187.437C115.629,183.771 112.827,171.375 112.536,153.456L147,153.456L147,186.477C137.856,186.525 127.65,186.846 116.565,187.437ZM186.456,187.605C174.621,186.942 163.173,186.555 153,186.474L153,153.453L190.464,153.453C190.2,174.141 187.326,184.845 186.456,187.605Z" style="fill-rule:nonzero;"/>
    </g>
</svg>
